X:1
T:Waiting on the Lord
T:Waiting on the Lord
T:Charles Frederick Weigele
T:Charles Frederick Weigele, 1903
T:Public Domain Courtesy of the Cyber Hymnal™
T:Public Domain Courtesy of the Cyber Hymnal™
C:Charles Frederick Weigele
Z:Public Domain
Z:Courtesy of the Cyber Hymnal™
%%score ( 1 2 ) ( 3 4 )
L:1/8
Q:1/4=100
M:4/4
K:Eb
V:1 treble 
V:2 treble 
V:3 bass 
V:4 bass 
V:1
 [GB]>[Ac] [GB]>[EG] E2 [GB]>[GB] | [Ac]2 [Bd]2 [ce]2 [Ac]2 | [GB]>[Ac] [GB]>[EG] E2 ([GB]>[GB]) | %3
w: 1.~Wait- ing on the Lord, for the|prom- ise giv- en;|Wait- ing on the Lord, to *|
w: 2.~Wait- ing on the Lord, giv- ing|all to Je- sus;|Wait- ing on the Lord, till~from *|
w: 3.~Wait- ing on the Lord, long- ing|to mount high- er;|Wait- ing on the Lord, having *|
 [FA]2 [EG]2 [DF]2 E2 | [GB]>[Ac] [GB]>[EG] E2 [GB]>[GB] | [Ac]2 [Bd]2 [ce]2 [Ac]2 | %6
w: send from Heav- en;|Wait- ing on the Lord, by our|faith re- ceiv- ing;|
w: sin He frees us;|Wait- ing on the Lord for the|heav’n- ly breez- es;|
w: great de- si- re;|Wait- ing on the Lord, for the|heav’n- ly fi- re;|
 [GB]>[EG] [DF]>[FA] [EG]2 [DF]2 | [B,E]6 ||"^Refrain" z B | e4 [Ad]3 [AB] | c4 [GB]3 G | %11
w: Wait- ing in the up- per|room.|The|pow- er! the|pow- er! Gives|
w: Wait- ing in the up- per|room.||||
w: Wait- ing in the up- per|room.||||
 [GB]>[FA] [FA]>[FA] [FA]2 [Ac]2 | [Ac]>[GB] [GB]>[GB] [GB]3 B | e4 [Ad]3 [AB] | c4 [GB]3 G | %15
w: vic- t’ry o- ver sin, and|pur- i- ty with- in; The|pow- er! the|pow- er! The|
w: ||||
w: ||||
 [GB]>[GB] [GB]>[Ac] [DG]2 [DF]2 | [B,E]8 |] %17
w: pow’r they had at Pen- te-|cost.|
w: ||
w: ||
V:2
 x4 E2 x2 | x8 | x4 E2 x2 | x6 E2 | x4 E2 x2 | x8 | x8 | x6 || x B | (G>GG>G) x4 | %10
 (A>AA>A) x3/2 G x3/2 | x8 | x7 B | (G>GG>G) x4 | (A>AA>A) x3/2 G x3/2 | x8 | x8 |] %17
V:3
 [E,E]>[E,E] [E,E]>[E,B,] [E,G,]2 [E,E]>[E,E] | [A,E]2 [A,E]2 [A,E]2 [A,E]2 | %2
w: ~ ~ ~ ~ ~ ~ ~|~ ~ ~ ~|
 [E,E]>[E,E] [E,E]>[E,B,] [G,B,]2 ([B,E]>[B,E]) | B,2 B,2 [B,,A,]2 [E,G,]2 | %4
w: ~ ~ ~ ~ ~ ~ *|~ ~ ~ ~|
 [E,E]>[E,E] [E,E]>[E,B,] [E,G,]2 [E,E]>[E,E] | [A,E]2 [A,E]2 [A,C]2 [A,E]2 | %6
w: ~ ~ ~ ~ ~ ~ ~|~ ~ ~ ~|
 [B,E]>B, B,>B, B,2 [B,,A,]2 | [E,G,]6 || z B, | [E,B,]>[E,B,][E,B,]>[E,B,] B,3 B, | %10
w: ~ ~ ~ ~ ~ ~|~|The|Pen- te- cost- al pow’r! The|
 [B,,B,]>[B,,B,][B,,C]>[B,,D] [E,E]3 [E,B,] | [B,,B,]>[B,,B,] [B,,B,]>[B,,B,] [B,,B,]2 [D,B,]2 | %12
w: Pen- te- cost- al pow’r! ~|~ ~ ~ ~ ~ ~|
 [E,B,]>[E,B,] [E,B,]>[E,B,] [E,B,]3 B, | [E,B,]>[E,B,][E,B,]>[E,B,] B,3 B, | %14
w: ~ ~ ~ ~ ~ ~|Pen- te- cost- al pow’r, the|
 [B,,B,]>[B,,B,][B,,C]>[B,,D] [E,E]3 [E,B,] | [B,,B,]>[B,,B,] [B,,B,]>[B,,B,] [B,,B,]2 [B,,A,]2 | %16
w: Pen- te- cost- al pow’r! *||
 [E,G,]8 |] %17
w: |
V:4
 x8 | x8 | x8 | B,2 B,2 x4 | x8 | x8 | x3/2 B,/ B,>B, B,2 x2 | x6 || x B, | x4 B,3 B, | x8 | x8 | %12
 x7 B, | x4 B,3 B, | x8 | x8 | x8 |] %17

